X: 1
T: Beware Of The Storm
M: 4/4
L: 1/8
R: reel
K:Bdor
f2ec ~B3c|A2eA fA e/f/a|f2ec ~B3c|1Acec Bafe:|2Acec ~B3e||
fbba f2ec|A2c/B/A eA c/d/e|fbba f2ec|1Acec ~B3e:|2Acec Bafe||
